X: 1
T: Moon Rise, The
M: 9/8
L: 1/8
R: slip jig
K: Emin
B|:Bde gfd A2B|Bde fgf d2e|Bde gfd A2B|agf gaf d2e:|
|:B2b gab afd|B2b gab a2f|B2b gab afd|e2f gaf d2e:|
